app/assets/images/expand.svg

<svg enable-background="new 0 0 24 24" viewBox="0 0 24 24" xmlns="http://www.w3.org/2000/svg"><path d="m23.8 2.5c0-1.2-1-2.2-2.2-2.2h-5.7c-.7 0-1.2.6-1.2 1.2s.6 1.2 1.2 1.2h5.1c.1 0 .2.1.2.2v3.3c0 .7.6 1.2 1.2 1.2s1.2-.6 1.2-1.2v-3.7z"/><path d="m21.5.3h-6.7c-.7 0-1.2.6-1.2 1.2s.6 1.2 1.2 1.2h6.2"/><path d="m.2 6.3c0 .7.6 1.2 1.2 1.2s1.4-.5 1.4-1.2v-3.3c0-.1.1-.3.2-.3h5.2c.7 0 1.2-.6 1.2-1.2s-.5-1.3-1.2-1.3h-5.7c-1.2 0-2.2 1-2.2 2.2z"/><path d="m.3 2.4v4.8c0 .7.6 1.2 1.2 1.2s1.3-.4 1.3-1.1v-4.3"/><path d="m3 2.7h6.2c.7 0 1.2-.6 1.2-1.2s-.5-1.3-1.2-1.3h-6.7"/><path d="m23.8 21.5v-3.8c0-.7-.6-1.2-1.2-1.2s-1.2.6-1.2 1.2v3.3c0 .1-.1.2-.2.2h-5.2c-.7 0-1.2.6-1.2 1.2s.6 1.2 1.2 1.2h5.7c1.1.1 2-.8 2.1-2.1z"/><path d="m23.8 21.5v-4.8c0-.7-.6-1.2-1.2-1.2s-1.2.6-1.2 1.2v4.3"/><path d="m23.8 20.5v-4.8c0-.7-.6-1.2-1.2-1.2s-1.2.6-1.2 1.2v4.3"/><path d="m21 21.2h-6.2c-.7 0-1.2.6-1.2 1.2s.6 1.2 1.2 1.2h6.7"/><path d="m.2 21.5c0 1.2 1 2.2 2.2 2.2h5.7c.7 0 1.2-.6 1.2-1.2s-.6-1.2-1.2-1.2h-5.1c-.1 0-.2-.1-.2-.2v-3.3c0-.7-.6-1.2-1.2-1.2s-1.4.4-1.4 1.1z"/><path d="m2.8 21v-4.3c0-.7-.6-1.2-1.2-1.2s-1.4.5-1.4 1.2v4.8"/><path d="m2.8 20v-4.3c0-.7-.6-1.2-1.2-1.2s-1.4.5-1.4 1.2v4.8"/><path d="m2.5 23.7h6.7c.7 0 1.2-.6 1.2-1.2s-.6-1.2-1.2-1.2h-6.2"/></svg>

<svg xmlns="http://www.w3.org/2000/svg" viewBox="0 0 24 24"><path d="M23.8 2.5c0-1.2-1-2.2-2.2-2.2h-5.7c-.7 0-1.2.6-1.2 1.2s.6 1.2 1.2 1.2H21c.1 0 .2.1.2.2v3.3c0 .7.6 1.2 1.2 1.2s1.2-.6 1.2-1.2V2.5z"/><path d="M21.5.3h-6.7c-.7 0-1.2.6-1.2 1.2s.6 1.2 1.2 1.2H21M.2 6.3c0 .7.6 1.2 1.2 1.2S2.8 7 2.8 6.3V3c0-.1.1-.3.2-.3h5.2c.7 0 1.2-.6 1.2-1.2S8.9.2 8.2.2H2.5C1.3.2.3 1.2.3 2.4z"/><path d="M.3 2.4v4.8c0 .7.6 1.2 1.2 1.2S2.8 8 2.8 7.3V3M3 2.7h6.2c.7 0 1.2-.6 1.2-1.2S9.9.2 9.2.2H2.5M23.8 21.5v-3.8c0-.7-.6-1.2-1.2-1.2s-1.2.6-1.2 1.2V21c0 .1-.1.2-.2.2H16c-.7 0-1.2.6-1.2 1.2s.6 1.2 1.2 1.2h5.7c1.1.1 2-.8 2.1-2.1"/><path d="M23.8 21.5v-4.8c0-.7-.6-1.2-1.2-1.2s-1.2.6-1.2 1.2V21"/><path d="M23.8 20.5v-4.8c0-.7-.6-1.2-1.2-1.2s-1.2.6-1.2 1.2V20M21 21.2h-6.2c-.7 0-1.2.6-1.2 1.2s.6 1.2 1.2 1.2h6.7M.2 21.5c0 1.2 1 2.2 2.2 2.2h5.7c.7 0 1.2-.6 1.2-1.2s-.6-1.2-1.2-1.2H3c-.1 0-.2-.1-.2-.2v-3.3c0-.7-.6-1.2-1.2-1.2S.2 17 .2 17.7z"/><path d="M2.8 21v-4.3c0-.7-.6-1.2-1.2-1.2S.2 16 .2 16.7v4.8"/><path d="M2.8 20v-4.3c0-.7-.6-1.2-1.2-1.2S.2 15 .2 15.7v4.8M2.5 23.7h6.7c.7 0 1.2-.6 1.2-1.2s-.6-1.2-1.2-1.2H3"/></svg>
